X:69
T: Fenstergang (Band 1), S. 200
N: P0844
O: Lothringen
S: PINCK, Louis: Verklingende Weisen, Bd 1, Metz 1928]
R: Fenstergangslied, Liebe]
M: 3/8
L: 1/16
K: G
DD | G2GBBA | B4
A2 | B2d2BA | B4
A2 | B2BBB2 | BBdcB2 |
A2A2A2 | BBBAG2 |
AAAGF2 | G4
GA | B2BBB2 | BBdcB2 |
A2A2A2 | BBBAG2 |
BAG2F2 | G4

@@@ Tune index: 7619
